docs/.gitbook/assets/icon-ticket-16@light.svg

<svg width="32" height="32" viewBox="0 0 16 16" fill="none" xmlns="http://www.w3.org/2000/svg">
<rect x="0" y="0" width="16" height="16" fill="#fff"/>
<path fill-rule="evenodd" clip-rule="evenodd" d="M2.75 3C1.7835 3 1 3.7835 1 4.75V6.06301C1 6.40522 1.23164 6.70404 1.56306 6.78934C2.10235 6.92814 2.5 7.41858 2.5 8C2.5 8.58142 2.10235 9.07186 1.56306 9.21066C1.23164 9.29596 1 9.59478 1 9.93699V11.25C1 12.2165 1.7835 13 2.75 13H13.25C14.2165 13 15 12.2165 15 11.25V9.93699C15 9.59478 14.7684 9.29596 14.4369 9.21066C13.8976 9.07186 13.5 8.58142 13.5 8C13.5 7.41858 13.8976 6.92814 14.4369 6.78934C14.7684 6.70404 15 6.40522 15 6.06301V4.75C15 3.7835 14.2165 3 13.25 3H2.75ZM2.5 4.75C2.5 4.61193 2.61193 4.5 2.75 4.5H13.25C13.3881 4.5 13.5 4.61193 13.5 4.75V5.5501C12.6098 6.00515 12 6.9307 12 8C12 9.0693 12.6098 9.99485 13.5 10.4499V11.25C13.5 11.3881 13.3881 11.5 13.25 11.5H2.75C2.61193 11.5 2.5 11.3881 2.5 11.25V10.4499C3.39018 9.99485 4 9.0693 4 8C4 6.9307 3.39018 6.00515 2.5 5.5501V4.75ZM6.75 7.25C6.33579 7.25 6 7.58579 6 8C6 8.41421 6.33579 8.75 6.75 8.75H9.25C9.66421 8.75 10 8.41421 10 8C10 7.58579 9.66421 7.25 9.25 7.25H6.75Z" fill="#000"/>
</svg>

<svg xmlns="http://www.w3.org/2000/svg" width="32" height="32" fill="none" viewBox="0 0 16 16"><path fill="#fff" d="M0 0h16v16H0z"/><path fill="#000" fill-rule="evenodd" d="M2.75 3A1.75 1.75 0 0 0 1 4.75v1.313a.75.75 0 0 0 .563.726 1.25 1.25 0 0 1 0 2.422.75.75 0 0 0-.563.726v1.313c0 .966.784 1.75 1.75 1.75h10.5A1.75 1.75 0 0 0 15 11.25V9.937a.75.75 0 0 0-.563-.726 1.25 1.25 0 0 1 0-2.422.75.75 0 0 0 .563-.726V4.75A1.75 1.75 0 0 0 13.25 3zM2.5 4.75a.25.25 0 0 1 .25-.25h10.5a.25.25 0 0 1 .25.25v.8a2.749 2.749 0 0 0 0 4.9v.8a.25.25 0 0 1-.25.25H2.75a.25.25 0 0 1-.25-.25v-.8a2.75 2.75 0 0 0 0-4.9zm4.25 2.5a.75.75 0 0 0 0 1.5h2.5a.75.75 0 0 0 0-1.5z" clip-rule="evenodd"/></svg>
